src/topics/icons/leafjet.svg

<svg height="136" preserveAspectRatio="xMidYMid" viewBox="0 0 512 136" width="512" xmlns="http://www.w3.org/2000/svg" xmlns:xlink="http://www.w3.org/1999/xlink"><linearGradient id="a" x1="-6.234037%" x2="103.067956%" y1="45.374339%" y2="58.974805%"><stop offset="0" stop-color="#8ac443"/><stop offset="1" stop-color="#75b843"/></linearGradient><linearGradient id="b" x1="-10.80141%" x2="110.995972%" y1="43.538272%" y2="56.985598%"><stop offset="0" stop-color="#75b843"/><stop offset="1" stop-color="#4b9744"/></linearGradient><linearGradient id="c" x1="108.510176%" x2="-3.274009%" y1="41.457781%" y2="65.746965%"><stop offset="0" stop-color="#c1db74"/><stop offset="1" stop-color="#acd259"/></linearGradient><linearGradient id="d" x1="129.072624%" x2="-25.412658%" y1="38.386031%" y2="61.918518%"><stop offset="0" stop-color="#acd259"/><stop offset="1" stop-color="#8ac443"/></linearGradient><path d="m347.7 88.3c-2 1.3-4.1 2-6.1 2-1.5 0-2.7-.6-3.7-1.8-.9-1.2-1.4-2.7-1.4-4.6 0-2.8.7-6.5 2.1-11.2l4-13.6 9.4-.7 2-9.3-8.5.5 6.3-21-16.2 3.3-5.7 18.9-5.8.2-1.9 9.5 4.6-.2-2.6 9.2c-1.2 4.1-2.1 7.7-2.6 10.9-4.8 4.9-8.4 8-10.8 9.4s-5 2.1-7.6 2.1c-6.8 0-11-3.9-12.6-11.8 17.7-5.2 26.6-12 26.6-20.3 0-3.1-1.1-5.7-3.4-7.6s-5.3-2.9-9-2.9c-7.2 0-13.8 3.5-19.7 10.4-5.4 6.3-8.3 13.2-8.8 20.9-4.9 4.8-8.6 8-11 9.5-2.5 1.6-4.8 2.4-7 2.4-2.1 0-3.9-1-5.1-3.1-1.3-2.1-1.9-4.8-1.9-8.3 0-1.6.2-4.5.5-8.6 8.1-8.7 14-17 17.8-24.7s5.7-15.7 5.7-23.9c0-2.9-.4-5.2-1.1-6.9s-1.7-2.6-2.9-2.6c-.2 0-.6.1-1.1.2l-15.4 5.4c-5.2 10-9.7 20.9-13.4 32.8-3.3 10.7-5.1 20.1-5.4 28-6.4 7.7-12.3 11.5-17.7 11.5-3.9 0-6.9-2.1-8.9-6.3l5.1-25.3c8.3-7.7 13.9-14.1 16.9-19.3s4.5-10.7 4.5-16.3c0-3.3-.5-5.9-1.5-7.9s-2.2-3-3.7-3c-.2 0-1.7.4-4.5 1.1s-5.5 1.5-8 2.2c-2.5.8-4 1.6-4.7 2.5-.6.9-2.2 4.2-4.7 10.1s-4.4 11.2-5.7 16.1c-1.4 4.8-3.2 12.7-5.3 23.5l-10.1 10.5v-.1c-3.4 3.4-6.1 6-8 7.6-1.9 1.7-3.6 2.5-5.2 2.5-2.5 0-3.7-1.7-3.7-5.2 0-3.3 1.4-9.4 4.1-18.3l5.3-17.7h-3.4l-12.4 6.8c-2-4.6-5.5-7-10.6-7-4 0-8.6 1.7-13.8 5.1s-9.5 7.8-12.8 13.3c-2.6 4.3-4.2 8.7-4.7 13.3-4.6 4.6-8.1 7.7-10.5 9.1s-5 2.1-7.6 2.1c-6.8 0-11-3.9-12.6-11.8 17.7-5.2 26.6-12 26.6-20.3 0-3.1-1.1-5.7-3.4-7.6s-5.3-2.9-9-2.9c-7.2 0-13.8 3.5-19.7 10.4-5.4 6.3-8.3 13.3-8.8 21-5.9 6.5-12.1 9.8-18.6 9.8-3.4 0-7.4-.9-12.1-2.7s-8.3-3-10.8-3.7c-2.5-.6-5.5-.8-8.9-.6 5.3-5.5 8.8-11.1 10.8-16.8 1.9-5.7 3.3-12.2 4.1-19.6s1.6-12.7 2.3-16 2-6.1 3.8-8.5 4.4-3.6 7.7-3.6c2.7 0 4.9 1 6.5 3s2.4 4.7 2.4 8.2c0 4.5-1 8.4-3.1 11.7s-4.5 4.9-7.2 4.9c-1.7 0-3-.6-4.1-1.9-.5 1.7-.7 3.1-.7 4.4 0 2.4.7 4.3 2.2 5.7s3.4 2.1 6 2.1c4.9 0 9.2-2.4 12.9-7.1 3.7-4.8 5.6-10.3 5.6-16.6 0-5.5-1.8-10-5.4-13.5s-8.1-5.3-13.7-5.3c-8.1 0-15.6 4-22.5 12.1-6.9 8-10.7 19.2-11.4 33.4-.4 6.9-.9 11.8-1.5 14.8s-2.1 6.1-4.4 9.2c-5.5.9-9.7 2.5-12.7 4.8s-4.5 5-4.5 8.1c0 1.5.5 2.7 1.5 3.7s2.3 1.5 3.8 1.5c4.4 0 9.3-3 14.8-8.9 2.9.8 6.3 2.1 10.2 3.9 3.8 1.8 7.1 3 9.8 3.8 2.7.7 5.5 1.1 8.4 1.1 10 0 19.7-4.8 29.3-14.5.7 3.7 2.2 6.9 4.7 9.4 3.4 3.5 7.8 5.3 13.3 5.3 4.9 0 9.4-1.2 13.5-3.6 3.9-2.3 8.3-5.9 13.2-10.6.4 3.5 1.6 6.6 3.5 9.2 2.5 3.3 5.5 5 9 5 3.6 0 7.1-1.4 10.6-4.1 3.4-2.7 7.1-7 11.2-12.8-.4 11.2 2.6 16.9 9 16.9 2.5 0 5.2-.9 8-2.8s7.4-5.8 13.8-12l4.1-4.5c1.1 3.1 1.9 5 2.4 5.8-3.2 17.6-5.4 31.9-6.7 43 5.9-1.2 10.9-2 15.1-2.6 1.3-10.3 2.8-19.8 4.5-28.7 2.7 1.2 4.8 1.7 6.3 1.7 3.2 0 6.9-1.3 11-3.8 4-2.5 8-6 12.1-10.5.5 3.7 1.7 6.8 3.7 9.3 2.6 3.3 6.1 5 10.4 5 3.7 0 7.7-1.2 11.8-3.6s8.9-6.1 14.4-11.2c.7 3.8 2.2 6.9 4.7 9.5 3.4 3.5 7.8 5.3 13.3 5.3 4.9 0 9.4-1.2 13.5-3.6 3.9-2.3 8.3-5.9 13.2-10.6.2 4 1.3 7.3 3.2 9.8 2.2 2.9 5 4.4 8.4 4.4 3.3 0 6.9-1.2 10.6-3.6s8.1-6.1 13.2-11.2v-7c-4.3 4-7.3 6.8-9.3 8.1zm-85.9-56.1c2.8-7.4 5-11.1 6.5-11.1.7 0 1.2.5 1.7 1.4.4.9.7 2.1.7 3.6 0 5.1-1.6 11.2-4.8 18.2-3.2 7.1-7.3 13.4-12.5 19.1 2.7-13.4 5.5-23.8 8.4-31.2zm-39.1-4.8c1.8-4.6 3.6-7 5.4-7 .9 0 1.7.5 2.3 1.6s.9 2.5.9 4.2c0 4-1.3 8.4-4 13.1s-6.4 9.2-11.1 13.3c2.5-12.2 4.7-20.6 6.5-25.2zm-120.2 26.6c2.8 0 4.2 1.9 4.2 5.8 0 7.8-5.2 13.2-15.5 16.1 0-6.5 1.2-11.8 3.6-15.8s5-6.1 7.7-6.1zm52.2 26.1c-3.6 6.9-7.4 10.3-11.4 10.3-1.7 0-3-.7-4.1-2s-1.6-3.1-1.6-5.3c0-5.8 1.8-12.1 5.4-18.9 3.6-6.9 7.4-10.3 11.5-10.3 1.7 0 3 .6 4.1 1.9 1 1.3 1.5 3 1.5 5.3-.1 5.8-1.9 12.1-5.4 19zm146.6-26.1c2.8 0 4.2 1.9 4.2 5.8 0 7.8-5.2 13.2-15.5 16.1 0-6.5 1.2-11.8 3.6-15.8 2.5-4.1 5.1-6.1 7.7-6.1z" fill="#70706f"/><path d="m377.4 54.3c1.3 1.5 26 9.7 34.5 19.7 8.6 10 12.3 18.9 11.1 27.5s-6.5 8.4-8.7 11.6c-2.3 3.1-5.5 7-11.5 6.6-8-.5-16.2-4.5-22.1-18.3s-5.5-26.8-5-34c.4-7.3 1.7-13.1 1.7-13.1z" fill="url(#a)"/><path d="m378.1 56.6 37 55.2-1.7 1.9z" fill="url(#b)"/><path d="m236.4 133.3.3-2.4c9.9-5.3 22.1-7.3 32.1-12.4 3 1.3 4.3-.6 7.5-.4 1.2 1-1.5 2.4 1.7 2.2 7.1.9 14.1-.4 21.1-1 7.4-.6 14.7.1 22-.4 2.3-.1 5.9-3.3 8.7-1.7 1.3 2.3-4.2 2.5-2.7 5.1 14.5 3.4 50.8 17.8 57 2.1.1 1-1.1 2.8.6 2.6 12.2-5.5 33-17.3 36.7-20.4 4-3.4 9.4-3.3 14.6-4.5 9.5-2.2 19.6-4.4 27.8-9.2 5.1 3.5 15.7 5.3 21.3 4 5.9-1.3 15.1-11.1 20-14.6 1.9-1.4 4.8-4 6.8-2.5-1.4 1 .2 3.8-1.5 3.3-.9-1.7-2.7.3-4-.1-4.9 4.1-10.1 7.9-15.1 11.8-2.4 1.4 2.3 2.9-.5 3.4-13 2.6-32.9-3.9-41.1 5.1-13 4.5-25.3 5.6-38.1 12.5-7.4 4-16.4 11.2-24.1 15-1.3.6-3.2.9-4.7 1.8-1.9 1.1-2.3 2.6-3.9 2.9-3.9.8-12-1.2-17.2-1.9-17-2.5-35.2-9.4-51.3-10.3-6.4-.3-13.9.7-21.1 1-15.3.7-24.8 1.1-37.1 5.2-4.8 1.7-12.6 6.2-15.8 3.8z" fill="#3d3d3c"/><path d="m472.6 0c-1.7 2.8-40.9 23-52.6 41.9-11.8 19-15.1 33.9-10.8 47.9s12.4 13.4 17 18 10.9 10.2 21 8c13.2-3 25.9-11.8 32.2-36.4s2.2-46.2-.5-58.1-6.3-21.3-6.3-21.3z" fill="url(#c)"/><path d="m471.9 4.2-47.5 101.8 2.8 2.8z" fill="url(#d)"/></svg>

<?xml version="1.0" encoding="UTF-8" standalone="no"?>
<svg width="512px" height="136px" viewBox="0 0 512 136" version="1.1" xmlns="http://www.w3.org/2000/svg" xmlns:xlink="http://www.w3.org/1999/xlink" preserveAspectRatio="xMidYMid">
    <defs>
        <linearGradient x1="-6.23403678%" y1="45.3743385%" x2="103.067956%" y2="58.9748052%" id="linearGradient-1">
            <stop stop-color="#8AC443" offset="0%"></stop>
            <stop stop-color="#75B843" offset="100%"></stop>
        </linearGradient>
        <linearGradient x1="-10.8014097%" y1="43.5382718%" x2="110.995972%" y2="56.9855979%" id="linearGradient-2">
            <stop stop-color="#75B843" offset="0%"></stop>
            <stop stop-color="#4B9744" offset="100%"></stop>
        </linearGradient>
        <linearGradient x1="108.510176%" y1="41.4577814%" x2="-3.27400939%" y2="65.7469648%" id="linearGradient-3">
            <stop stop-color="#C1DB74" offset="0%"></stop>
            <stop stop-color="#ACD259" offset="100%"></stop>
        </linearGradient>
        <linearGradient x1="129.072624%" y1="38.3860312%" x2="-25.4126581%" y2="61.9185176%" id="linearGradient-4">
            <stop stop-color="#ACD259" offset="0%"></stop>
            <stop stop-color="#8AC443" offset="100%"></stop>
        </linearGradient>
    </defs>
	<g>
		<path d="M347.7,88.3 C345.7,89.6 343.6,90.3 341.6,90.3 C340.1,90.3 338.9,89.7 337.9,88.5 C337,87.3 336.5,85.8 336.5,83.9 C336.5,81.1 337.2,77.4 338.6,72.7 L342.6,59.1 L352,58.4 L354,49.1 L345.5,49.6 L351.8,28.6 L335.6,31.9 L329.9,50.8 L324.1,51 L322.2,60.5 L326.8,60.3 L324.2,69.5 C323,73.6 322.1,77.2 321.6,80.4 C316.8,85.3 313.2,88.4 310.8,89.8 C308.4,91.2 305.8,91.9 303.2,91.9 C296.4,91.9 292.2,88 290.6,80.1 C308.3,74.9 317.2,68.1 317.2,59.8 C317.2,56.7 316.1,54.1 313.8,52.2 C311.5,50.3 308.5,49.3 304.8,49.3 C297.6,49.3 291,52.8 285.1,59.7 C279.7,66 276.8,72.9 276.3,80.6 C271.4,85.4 267.7,88.6 265.3,90.1 C262.8,91.7 260.5,92.5 258.3,92.5 C256.2,92.5 254.4,91.5 253.2,89.4 C251.9,87.3 251.3,84.6 251.3,81.1 C251.3,79.5 251.5,76.6 251.8,72.5 C259.9,63.8 265.8,55.5 269.6,47.8 C273.4,40.1 275.3,32.1 275.3,23.9 C275.3,21 274.9,18.7 274.2,17 C273.5,15.3 272.5,14.4 271.3,14.4 C271.1,14.4 270.7,14.5 270.2,14.6 L254.8,20 C249.6,30 245.1,40.9 241.4,52.8 C238.1,63.5 236.3,72.9 236,80.8 C229.6,88.5 223.7,92.3 218.3,92.3 C214.4,92.3 211.4,90.2 209.4,86 L214.5,60.7 C222.8,53 228.4,46.6 231.4,41.4 C234.4,36.2 235.9,30.7 235.9,25.1 C235.9,21.8 235.4,19.2 234.4,17.2 C233.4,15.2 232.2,14.2 230.7,14.2 C230.5,14.2 229,14.6 226.2,15.3 C223.4,16 220.7,16.8 218.2,17.5 C215.7,18.3 214.2,19.1 213.5,20 C212.9,20.9 211.3,24.2 208.8,30.1 C206.3,36 204.4,41.3 203.1,46.2 C201.7,51 199.9,58.9 197.8,69.7 L187.7,80.2 L187.7,80.1 C184.3,83.5 181.6,86.1 179.7,87.7 C177.8,89.4 176.1,90.2 174.5,90.2 C172,90.2 170.8,88.5 170.8,85 C170.8,81.7 172.2,75.6 174.9,66.7 L180.2,49 L176.8,49 L164.4,55.8 C162.4,51.2 158.9,48.8 153.8,48.8 C149.8,48.8 145.2,50.5 140,53.9 C134.8,57.3 130.5,61.7 127.2,67.2 C124.6,71.5 123,75.9 122.5,80.5 C117.9,85.1 114.4,88.2 112,89.6 C109.6,91 107,91.7 104.4,91.7 C97.6,91.7 93.4,87.8 91.8,79.9 C109.5,74.7 118.4,67.9 118.4,59.6 C118.4,56.5 117.3,53.9 115,52 C112.7,50.1 109.7,49.1 106,49.1 C98.8,49.1 92.2,52.6 86.3,59.5 C80.9,65.8 78,72.8 77.5,80.5 C71.6,87 65.4,90.3 58.9,90.3 C55.5,90.3 51.5,89.4 46.8,87.6 C42.1,85.8 38.5,84.6 36,83.9 C33.5,83.3 30.5,83.1 27.1,83.3 C32.4,77.8 35.9,72.2 37.9,66.5 C39.8,60.8 41.2,54.3 42,46.9 C42.8,39.5 43.6,34.2 44.3,30.9 C45,27.6 46.3,24.8 48.1,22.4 C49.9,20 52.5,18.8 55.8,18.8 C58.5,18.8 60.7,19.8 62.3,21.8 C63.9,23.8 64.7,26.5 64.7,30 C64.7,34.5 63.7,38.4 61.6,41.7 C59.5,45 57.1,46.6 54.4,46.6 C52.7,46.6 51.4,46 50.3,44.7 C49.8,46.4 49.6,47.8 49.6,49.1 C49.6,51.5 50.3,53.4 51.8,54.8 C53.3,56.2 55.2,56.9 57.8,56.9 C62.7,56.9 67,54.5 70.7,49.8 C74.4,45 76.3,39.5 76.3,33.2 C76.3,27.7 74.5,23.2 70.9,19.7 C67.3,16.2 62.8,14.4 57.2,14.4 C49.1,14.4 41.6,18.4 34.7,26.5 C27.8,34.5 24,45.7 23.3,59.9 C22.9,66.8 22.4,71.7 21.8,74.7 C21.2,77.7 19.7,80.8 17.4,83.9 C11.9,84.8 7.7,86.4 4.7,88.7 C1.7,91 0.2,93.7 0.2,96.8 C0.2,98.3 0.7,99.5 1.7,100.5 C2.7,101.5 4,102 5.5,102 C9.9,102 14.8,99 20.3,93.1 C23.2,93.9 26.6,95.2 30.5,97 C34.3,98.8 37.6,100 40.3,100.8 C43,101.5 45.8,101.9 48.7,101.9 C58.7,101.9 68.4,97.1 78,87.4 C78.7,91.1 80.2,94.3 82.7,96.8 C86.1,100.3 90.5,102.1 96,102.1 C100.9,102.1 105.4,100.9 109.5,98.5 C113.4,96.2 117.8,92.6 122.7,87.9 C123.1,91.4 124.3,94.5 126.2,97.1 C128.7,100.4 131.7,102.1 135.2,102.1 C138.8,102.1 142.3,100.7 145.8,98 C149.2,95.3 152.9,91 157,85.2 C156.6,96.4 159.6,102.1 166,102.1 C168.5,102.1 171.2,101.2 174,99.3 C176.8,97.4 181.4,93.5 187.8,87.3 L187.8,87.3 L191.9,82.8 C193,85.9 193.8,87.8 194.3,88.6 C191.1,106.2 188.9,120.5 187.6,131.6 C193.5,130.4 198.5,129.6 202.7,129 C204,118.7 205.5,109.2 207.2,100.3 C209.9,101.5 212,102 213.5,102 C216.7,102 220.4,100.7 224.5,98.2 C228.5,95.7 232.5,92.2 236.6,87.7 C237.1,91.4 238.3,94.5 240.3,97 C242.9,100.3 246.4,102 250.7,102 C254.4,102 258.4,100.8 262.5,98.4 C266.6,96 271.4,92.3 276.9,87.2 L276.9,87.2 C277.6,91 279.1,94.1 281.6,96.7 C285,100.2 289.4,102 294.9,102 C299.8,102 304.3,100.8 308.4,98.4 C312.3,96.1 316.7,92.5 321.6,87.8 C321.8,91.8 322.9,95.1 324.8,97.6 C327,100.5 329.8,102 333.2,102 C336.5,102 340.1,100.8 343.8,98.4 C347.5,96 351.9,92.3 357,87.2 L357,87.2 L357,80.2 C352.7,84.2 349.7,87 347.7,88.3 L347.7,88.3 Z M261.8,32.2 C264.6,24.8 266.8,21.1 268.3,21.1 C269,21.1 269.5,21.6 270,22.5 C270.4,23.4 270.7,24.6 270.7,26.1 C270.7,31.2 269.1,37.3 265.9,44.3 C262.7,51.4 258.6,57.7 253.4,63.4 L253.4,63.4 C256.1,50 258.9,39.6 261.8,32.2 L261.8,32.2 Z M222.7,27.4 C224.5,22.8 226.3,20.4 228.1,20.4 C229,20.4 229.8,20.9 230.4,22 C231,23.1 231.3,24.5 231.3,26.2 C231.3,30.2 230,34.6 227.3,39.3 C224.6,44 220.9,48.5 216.2,52.6 C218.7,40.4 220.9,32 222.7,27.4 L222.7,27.4 Z M102.5,54 C105.3,54 106.7,55.9 106.7,59.8 C106.7,67.6 101.5,73 91.2,75.9 C91.2,69.4 92.4,64.1 94.8,60.1 C97.2,56.1 99.8,54 102.5,54 L102.5,54 Z M154.7,80.1 C151.1,87 147.3,90.4 143.3,90.4 L143.3,90.4 C141.6,90.4 140.3,89.7 139.2,88.4 C138.1,87.1 137.6,85.3 137.6,83.1 C137.6,77.3 139.4,71 143,64.2 C146.6,57.3 150.4,53.9 154.5,53.9 C156.2,53.9 157.5,54.5 158.6,55.8 C159.6,57.1 160.1,58.8 160.1,61.1 C160,66.9 158.2,73.2 154.7,80.1 L154.7,80.1 Z M301.3,54 C304.1,54 305.5,55.9 305.5,59.8 C305.5,67.6 300.3,73 290,75.9 C290,69.4 291.2,64.1 293.6,60.1 C296.1,56 298.7,54 301.3,54 L301.3,54 Z" fill="#70706F"></path>
		<path d="M377.4,54.3 C378.7,55.8 403.4,64 411.9,74 C420.5,84 424.2,92.9 423,101.5 C421.8,110.1 416.5,109.9 414.3,113.1 C412,116.2 408.8,120.1 402.8,119.7 C394.8,119.2 386.6,115.2 380.7,101.4 C374.8,87.6 375.2,74.6 375.7,67.4 C376.1,60.1 377.4,54.3 377.4,54.3 L377.4,54.3 Z" fill="url(#linearGradient-1)"></path>
		<path d="M378.1,56.6 L415.1,111.8 L413.4,113.7 L378.1,56.6 Z" fill="url(#linearGradient-2)"></path>
		<path d="M236.4,133.3 L236.7,130.9 C246.6,125.6 258.8,123.6 268.8,118.5 C271.8,119.8 273.1,117.9 276.3,118.1 C277.5,119.1 274.8,120.5 278,120.3 C285.1,121.2 292.1,119.9 299.1,119.3 C306.5,118.7 313.8,119.4 321.1,118.9 C323.4,118.8 327,115.6 329.8,117.2 C331.1,119.5 325.6,119.7 327.1,122.3 C341.6,125.7 377.9,140.1 384.1,124.4 C384.2,125.4 383,127.2 384.7,127 C396.9,121.5 417.7,109.7 421.4,106.6 C425.4,103.2 430.8,103.3 436,102.1 C445.5,99.9 455.6,97.7 463.8,92.9 C468.9,96.4 479.5,98.2 485.1,96.9 C491,95.6 500.2,85.8 505.1,82.3 C507,80.9 509.9,78.3 511.9,79.8 C510.5,80.8 512.1,83.6 510.4,83.1 C509.5,81.4 507.7,83.4 506.4,83 C501.5,87.1 496.3,90.9 491.3,94.8 C488.9,96.2 493.6,97.7 490.8,98.2 C477.8,100.8 457.9,94.3 449.7,103.3 C436.7,107.8 424.4,108.9 411.6,115.8 C404.2,119.8 395.2,127 387.5,130.8 C386.2,131.4 384.3,131.7 382.8,132.6 C380.9,133.7 380.5,135.2 378.9,135.5 C375,136.3 366.9,134.3 361.7,133.6 C344.7,131.1 326.5,124.2 310.4,123.3 C304,123 296.5,124 289.3,124.3 C274,125 264.5,125.4 252.2,129.5 C247.4,131.2 239.6,135.7 236.4,133.3 L236.4,133.3 L236.4,133.3 Z" fill="#3D3D3C"></path>
		<path d="M472.6,0 C470.9,2.8 431.7,23 420,41.9 C408.2,60.9 404.9,75.8 409.2,89.8 C413.5,103.8 421.6,103.2 426.2,107.8 C430.8,112.4 437.1,118 447.2,115.8 C460.4,112.8 473.1,104 479.4,79.4 C485.7,54.8 481.6,33.2 478.9,21.3 C476.2,9.4 472.6,0 472.6,0 L472.6,0 L472.6,0 Z" fill="url(#linearGradient-3)"></path>
		<path d="M471.9,4.2 L424.4,106 L427.2,108.8 L471.9,4.2 Z" fill="url(#linearGradient-4)"></path>
	</g>
</svg>
